recipes/messenger/icon.svg

<?xml version="1.0" encoding="UTF-8"?>
<svg width="80px" height="80px" viewBox="0 0 80 80" version="1.1" xmlns="http://www.w3.org/2000/svg" xmlns:xlink="http://www.w3.org/1999/xlink">
    <!-- Generator: Sketch 42 (36781) - http://www.bohemiancoding.com/sketch -->
    <title>messenger</title>
    <desc>Created with Sketch.</desc>
    <defs>
        <linearGradient x1="50%" y1="100%" x2="50%" y2="0%" id="linearGradient-1">
            <stop stop-color="#006DFF" offset="11%"></stop>
            <stop stop-color="#00C6FF" offset="95%"></stop>
        </linearGradient>
    </defs>
    <g id="icons" stroke="none" stroke-width="1" fill="none" fill-rule="evenodd">
        <g id="messenger" fill="url(#linearGradient-1)">
            <g id="Messenger_Mark">
                <g>
                    <g fill-rule="nonzero">
                        <path d="M40,0.0508259212 C17.9415502,0.0508259212 0.0508259212,16.7756036 0.0508259212,37.407878 C0.0508259212,49.1445997 5.83888183,59.6167726 14.8919949,66.4650572 L14.8919949,80.7623888 L28.52554,73.2005083 C32.261136,74.2427379 36.1217398,74.7690906 40,74.7649301 C62.0584498,74.7649301 79.9491741,58.0401525 79.9491741,37.407878 C79.9491741,16.7756036 62.0635324,0.0508259212 40,0.0508259212 Z M44.2073698,50.1448539 L33.8754765,39.4114358 L13.9771283,50.4193139 L35.7926302,27.2660737 L46.1245235,37.9994917 L66.0228717,26.9956798 L44.2073698,50.1448539 Z" id="Bubble_Shape"></path>
                    </g>
                </g>
            </g>
        </g>
    </g>
</svg>

<svg height="80" viewBox="0 0 80 80" width="80" xmlns="http://www.w3.org/2000/svg" xmlns:xlink="http://www.w3.org/1999/xlink"><linearGradient id="a" x1="50%" x2="50%" y1="100%" y2="0%"><stop offset=".11" stop-color="#006dff"/><stop offset=".95" stop-color="#00c6ff"/></linearGradient><path d="m40 .05082592c-22.0584498 0-39.94917408 16.72477768-39.94917408 37.35705208 0 11.7367217 5.78805591 22.2088946 14.84116898 29.0571792v14.2973316l13.6335451-7.5618805c3.735596 1.0422296 7.5961998 1.5685823 11.47446 1.5644218 22.0584498 0 39.9491741-16.7247776 39.9491741-37.3570521 0-20.6322744-17.8856417-37.35705208-39.9491741-37.35705208zm4.2073698 50.09402798-10.3318933-10.7334181-19.8983482 11.0078781 21.8155019-23.1532402 10.3318933 10.733418 19.8983482-11.0038119z" fill="url(#a)"/></svg>
